Sources/FrostedUI/Resources/Icons.xcassets/microphone32.imageset/microphone-32.svg

<svg width="32" height="32" viewBox="0 0 32 32" fill="none" xmlns="http://www.w3.org/2000/svg" data-fui-icon="true">
  <path
    d="M27.9995 13.25C28.4137 13.25 28.7495 13.5858 28.7495 14C28.7495 20.6297 23.6893 26.076 17.2205 26.6905C16.9568 26.7156 16.7495 26.9335 16.7495 27.1984V28C16.7495 28.2761 16.9734 28.5 17.2495 28.5H20.9995C21.4137 28.5 21.7495 28.8358 21.7495 29.25C21.7495 29.6642 21.4137 30 20.9995 30H10.9995C10.5855 29.9998 10.2495 29.6641 10.2495 29.25C10.2495 28.8359 10.5855 28.5002 10.9995 28.5H14.7495C15.0257 28.5 15.2495 28.2761 15.2495 28V27.1984C15.2495 26.9335 15.0422 26.7156 14.7785 26.6905C8.3099 26.0757 3.24951 20.6296 3.24951 14C3.24951 13.5859 3.58551 13.2502 3.99951 13.25C4.41373 13.25 4.74951 13.5858 4.74951 14C4.74951 20.2131 9.78652 25.2498 15.9995 25.25C22.2127 25.25 27.2495 20.2132 27.2495 14C27.2495 13.5859 27.5855 13.2502 27.9995 13.25ZM15.9995 2C20.4178 2 23.9995 5.58172 23.9995 10V14C23.9995 18.4183 20.4178 22 15.9995 22C11.7197 21.9998 8.22473 18.6387 8.01025 14.4121L7.99951 14V10C7.99951 5.58187 11.5814 2.00025 15.9995 2ZM15.9995 3.5C12.4099 3.50025 9.49951 6.4103 9.49951 10V14C9.49951 17.5897 12.4099 20.4998 15.9995 20.5C19.5894 20.5 22.4995 17.5899 22.4995 14V10C22.4995 6.41015 19.5894 3.5 15.9995 3.5Z"
    fill="currentColor"
  />
</svg>

<svg xmlns="http://www.w3.org/2000/svg" width="32" height="32" fill="none" data-fui-icon="true" viewBox="0 0 32 32"><path fill="currentColor" d="M28 13.25a.75.75 0 0 1 .75.75c0 6.63-5.06 12.076-11.53 12.69a.516.516 0 0 0-.47.508V28a.5.5 0 0 0 .5.5H21a.75.75 0 0 1 0 1.5H11a.75.75 0 0 1 0-1.5h3.75a.5.5 0 0 0 .5-.5v-.802a.516.516 0 0 0-.472-.508C8.31 26.077 3.25 20.63 3.25 14a.75.75 0 0 1 1.5 0c0 6.213 5.037 11.25 11.25 11.25S27.25 20.213 27.25 14a.75.75 0 0 1 .75-.75M16 2a8 8 0 0 1 8 8v4a8 8 0 0 1-15.99.412L8 14v-4a8 8 0 0 1 8-8m0 1.5A6.5 6.5 0 0 0 9.5 10v4a6.5 6.5 0 0 0 13 0v-4A6.5 6.5 0 0 0 16 3.5"/></svg>
